X:1
T:Le seul espoir
T:Le seul espoir
T:Noé Faignient
C:Noé Faignient
%%score [ 1 2 3 4 ]
L:1/8
Q:1/4=120
M:4/4
K:C
V:1 treble nm="Soprano" snm="S"
V:2 treble nm="Alto" snm="A"
V:3 treble-8 nm="Tenor" snm="T"
V:4 bass nm="Baritone" snm="B"
V:1
 G8 |: ^F4 G4 | G4 z2 B2 | A2 B2 c4 | e4 e4 | d2 ^c4 d2- |1 d2 ^c2 d4 ||1 z4 G4 :|2 d2 ^c2 d2 A2 || %9
w: Le|seul es-|poir, le|seul es- poir|de mieux|a- voir m'a-|* mi- e,|Le|* mi- e sous-|
 A2 A2 B4 | B4 c4- | c4 d4 | e2 f2 e4 | e2 ^c2 c2 c2 | d4 z2 d2 | d2 d2 e4- | e4 e4 | d8 | c8 | %19
w: tient mon coeur|plain de|_ do-|leur en vi-|e, sous- tient mon|coeur, sous-|tient mon coeur|_ plain|de|do-|
 B8 | z2 c2 B4 | c4 e4- | e2 e2 d4 | d4 B4 | c4 c4 | _B2 B2 A4 | A4 d4 |: c3 B A2 d2 | %28
w: leur|en vi-|e, con-|* tent me|rend en|par- tie|es- pe- ran-|ce, mieux|es- pe- rer fait|
 c2 B2 A2 A2 | ^G4 A4 | z2 f2 e2 d2 | c2 d2 e4 | A8 | z8 | d4 c3 B | A2 f2 e3 d | ^c2 d2 B2 c2 | %37
w: en- du- rer ou-|tran- ce,|fait en- du-|rer ou- tran-|ce||mieux es- pe-|rer, mieux es- pe-|rer fait en- du-|
 c2 B2 A4 |1 B4 d4 :|2 ^c2 d2 d2 e2 || f4 d4 | d8 | B8 |] %43
w: rer ou- tran-|ce, mieux|rer fait en- du-|rer ou-|tran-|ce.|
V:2
 D8 |: D4 D4 | E4 z2 G2 | ^F2 G2 G4 | c4 c4 | _B2 A4 G2 |1 A4 ^F4 ||1 z4 D4 :|2 A4 A2 ^F2 || %9
w: Le|seul es-|poir, le|seul es- poir|de mieux|a- voir m'a-|mi- e,|Le|mi- e sous-|
 ^F2 =F2 G4- | G4 G4 | A4 A4 | ^G2 A4 G2 | A4 z2 A2 | A2 A2 B4 | B4 c4- | c4 C4 | D4 D4 | A4 E4 | %19
w: tient mon coeur|_ plain|de do-|leur en vi-|e, sous-|tient mon coeur|plain de|_ do-|leur, plan|de do-|
 G8 | z2 A2 G4 | E4 c4- | c2 c2 A4 |"^-natural" B4 G4 | A4 G4 | G2 G2 E4 | D4 A4 |: G3 F E2 D2 | %28
w: leur|en- vi-|e, con-|* tent me|_ en|par- tie|es- pe- ran-|ce, mieux|es- pe- rer fait|
 A2 D2 E2 F2 | D4 E4 | c4 B2 B2 | A4 z2 G2 | F3 E D2 F2 | E3 D E4 | A4 G3 F | E2 c2 c3 A | %36
w: en- du- rer ou-|tran- ce,|mieux- es- pe-|rer, mieux|es- pe- rer, mieux|es- pe- rer,|mieux es- pe-|rer, mieux es- pe-|
 A2 A2 G2 G2 | A2 G2 ^F4 |1 G4 G4 :|2 A2 ^F2 G2 G2 || A4 G4- | G4 ^F4 | G8 |] %43
w: rer fait en- du-|rer ou- tran-|ce, mieux|rer fait en- du-|rer ou-|* tran-|ce.|
V:3
 B8 |: A4 B4 | c4 z2 d2 | d2 d2 e4 | g4 g4 | g2 e4 d2 |1 e4 d4 ||1 B8 :|2 e4 d4 || z2 d2 d2 d2 | %10
w: Le|seul es-|poir, le|seul es- poir|de mieux|a- voir m'a-|mi- e,|Le|mi- e|sous- tient mon|
 e4 e4 | f4 f4 | e2 d2 e4 | A4 z2 e2 | ^f2 f2 g4- | g8 | z4 g4- | f4 f4- | f4 e4- | e4 d4 | %20
w: coeur plain|de do-|leur en- vi-|e, sous-|tient mon coeur|_|plain|_ de|_ do-|* leur|
 z2 f2 d4 | c4 g4- | g2 g2 ^f4 | g4 d4 | f4 e4 | d2 d2 ^c4 | d4 f4 |: e3 d c2 B2 | A2 B2 c2 d2 | %29
w: en vi-|e, con-|* tent me|rend en|par- tie|es- pe- ran-|ce, mieux|es- pe- rer fait|en- u- rer ou-|
"^-natural" B4 A4 | a4 g3 f |"^#" e2 d4 c2 | d4 z2 a2 | a2 g2 a4 | f4 e3 d | c2 a2 g3 f | %36
w: tran- ce,|fait- en- du-|rer ou- tran-|ce, mieux|es- pe- rer,|mieux es- pe-|rer, mieux es- pe-|
 e2 f2 d2 e2 | f2 d2 d4 |1 d4 z2 d2 :|2"^-natural" e2 d2 d2 c2 || c4 B4 | A8 | G8 |] %43
w: rer fait en- du-|rer ou- tran-|ce, mieux|rer fait en- du-|rer ou-|tran-|ce.|
V:4
 G,8 |: D,4 G,4 | C,4 z2 G,2 | D,2 G,2 C,4 | C4 C4 | G,2 A,4 _B,2 |1 A,4 D,4 ||1 G,8 :|2 %8
w: Le|seul es-|poir, le|seul es- poir|de mieux|a- voir m'a-|mi- e,|Le|
 A,4 D,2 D,2 || D,2 D,2 G,4 | z8 | z8 | z8 | z2 A,2 A,2 A,2 | D4 z2 G,2 | G,2 G,2 C4- | C4 C4 | %17
w: mi- e sous-|tient mon coeur||||sous- tient mon|coeur sous|tient mon coeur|_ plain|
 _B,8 | A,8 | G,8 | z2 F,2 G,4 | C,4 C4- | C2 C2 D4 | G,4 G,4 | F,4 C,4 | G,2 G,2 A,4 | D,8 |: z8 | %28
w: de|do-|leur|en vi-|e, con-|* tent me|rend en|par- tie|es- pe- ran-|ce,||
 z8 | z2 D2 C3 B, | A,2 F,2 G,2 G,2 | A,2 F,2 E,4 | D,4 z2 D2 | C3 B, A,4 | z8 | z2 F,2 C3 D | %36
w: |mieux es- pe-|rer fait en- du-|rer ou- tran-|ce, mieux|es- pe- rer||mieux es- pe-|
 A,2 D,2 G,2 C,2 | F,2 G,2 D,4 |1 G,8 :|2"^-natural" A,2 D,2 G,2 C,2 || F,4 G,4 | D,8 | G,,8 |] %43
w: rer fait en- du-|rer ou- tran-|ce|rer fait e- du-|rer ou-|tran-|ce.|

